modules/boxicons-solid/icons/coffee.svg

<svg xmlns="http://www.w3.org/2000/svg" width="24" height="24" viewBox="0 0 24 24" viewBox="0 0 24 24"><path d="M20 9h-3V7H3v13c0 .553.447 1 1 1h12c.553 0 1-.447 1-1v-2h3c.553 0 1-.447 1-1v-7C21 9.447 20.553 9 20 9zM19 16h-2v-5h2V16zM5 2H7V5H5zM9 2H11V5H9zM13 2H15V5H13z"/></svg>

<svg xmlns="http://www.w3.org/2000/svg" width="24" height="24" viewBox="0 0 24 24"><path d="M20 9h-3V7H3v13a1 1 0 0 0 1 1h12a1 1 0 0 0 1-1v-2h3a1 1 0 0 0 1-1v-7a1 1 0 0 0-1-1zm-1 7h-2v-5h2v5zM5 2h2v3H5zm4 0h2v3H9zm4 0h2v3h-2z"/></svg>
